X:296
M:3/4
L:1/8
K:A
E2 | E2 A2 B2 | c6/2 B A2 | B2 c2 B2 | A4 E2 | E2 A2 B2 | c6/2 B A2 | B2 c2 B2 | A4 c2 | e2 c2 A2 | FA A2 A2 | d2 d2 d2 | c4 E2 | E2 A2 c2 | c6/2 B A2 | B6/2 A B2 | A6 || B2 B2 B2 | B4 A2 | c2 A2 F2 | E4 !sintro! E2 | F2 A2 d2 | c6/2 B A2 | B6/2 A B2 | A4 !eintro!|]
